src/svg/icons/move.svg

<svg height="1000" width="1000" xmlns="http://www.w3.org/2000/svg"><path d="M999.936 500.032q0 14.508 -10.602 25.11l-142.848 142.848q-10.602 10.602 -25.11 10.602t-25.11 -10.602 -10.602 -25.11v-71.424h-214.272v214.272h71.424q14.508 0 25.11 10.602t10.602 25.11 -10.602 25.11l-142.848 142.848q-10.602 10.602 -25.11 10.602t-25.11 -10.602l-142.848 -142.848q-10.602 -10.602 -10.602 -25.11t10.602 -25.11 25.11 -10.602h71.424v-214.272h-214.272v71.424q0 14.508 -10.602 25.11t-25.11 10.602 -25.11 -10.602l-142.848 -142.848q-10.602 -10.602 -10.602 -25.11t10.602 -25.11l142.848 -142.848q10.602 -10.602 25.11 -10.602t25.11 10.602 10.602 25.11v71.424h214.272v-214.272h-71.424q-14.508 0 -25.11 -10.602t-10.602 -25.11 10.602 -25.11l142.848 -142.848q10.602 -10.602 25.11 -10.602t25.11 10.602l142.848 142.848q10.602 10.602 10.602 25.11t-10.602 25.11 -25.11 10.602h-71.424v214.272h214.272v-71.424q0 -14.508 10.602 -25.11t25.11 -10.602 25.11 10.602l142.848 142.848q10.602 10.602 10.602 25.11z"/></svg>

<svg height="1000" width="1000" xmlns="http://www.w3.org/2000/svg"><path d="M999.936 500.032q0 14.508-10.602 25.11L846.486 667.99q-10.602 10.602-25.11 10.602t-25.11-10.602-10.602-25.11v-71.424H571.392v214.272h71.424q14.508 0 25.11 10.602t10.602 25.11-10.602 25.11L525.078 989.398Q514.476 1000 499.968 1000t-25.11-10.602L332.01 846.55q-10.602-10.602-10.602-25.11t10.602-25.11 25.11-10.602h71.424V571.456H214.272v71.424q0 14.508-10.602 25.11t-25.11 10.602-25.11-10.602L10.602 525.142Q0 514.54 0 500.032t10.602-25.11L153.45 332.074q10.602-10.602 25.11-10.602t25.11 10.602 10.602 25.11v71.424h214.272V214.336H357.12q-14.508 0-25.11-10.602t-10.602-25.11 10.602-25.11L474.858 10.666Q485.46.064 499.968.064t25.11 10.602l142.848 142.848q10.602 10.602 10.602 25.11t-10.602 25.11-25.11 10.602h-71.424v214.272h214.272v-71.424q0-14.508 10.602-25.11t25.11-10.602 25.11 10.602l142.848 142.848q10.602 10.602 10.602 25.11z"/></svg>
